svg/pine_tree_variant_outline.svg

<svg xmlns="http://www.w3.org/2000/svg" viewBox="0 0 24 24"><path d="M19 12 12 2 5 12h1.86L3 18h7v4h4v-4h7l-3.86-6zm-3.84-2H13.5l3.84 6H6.67l3.86-6H8.84L12 5.5z"/></svg>

<svg xmlns="http://www.w3.org/2000/svg" id="mdi-pine-tree-variant-outline" viewBox="0 0 24 24"><path d="M19 12L12 2L5 12H6.86L3 18H10V22H14V18H21L17.14 12H19M15.16 10H13.5L17.34 16H6.67L10.53 10H8.84L12 5.5L15.16 10Z" /></svg>
